Numix-Circle/48x48/apps/cura.svg

<?xml version="1.0" encoding="UTF-8" standalone="no"?>
<svg
   xmlns:dc="http://purl.org/dc/elements/1.1/"
   xmlns:cc="http://creativecommons.org/ns#"
   xmlns:rdf="http://www.w3.org/1999/02/22-rdf-syntax-ns#"
   xmlns:svg="http://www.w3.org/2000/svg"
   xmlns="http://www.w3.org/2000/svg"
   xmlns:sodipodi="http://sodipodi.sourceforge.net/DTD/sodipodi-0.dtd"
   xmlns:inkscape="http://www.inkscape.org/namespaces/inkscape"
   viewBox="0 0 48 48"
   id="svg2"
   version="1.1"
   inkscape:version="0.48.5 r10040"
   width="100%"
   height="100%"
   sodipodi:docname="cura.svg">
  <metadata
     id="metadata81">
    <rdf:RDF>
      <cc:Work
         rdf:about="">
        <dc:format>image/svg+xml</dc:format>
        <dc:type
           rdf:resource="http://purl.org/dc/dcmitype/StillImage" />
      </cc:Work>
    </rdf:RDF>
  </metadata>
  <sodipodi:namedview
     pagecolor="#ffffff"
     bordercolor="#666666"
     borderopacity="1"
     objecttolerance="10"
     gridtolerance="10"
     guidetolerance="10"
     inkscape:pageopacity="0"
     inkscape:pageshadow="2"
     inkscape:window-width="1280"
     inkscape:window-height="998"
     id="namedview79"
     showgrid="false"
     inkscape:zoom="3.4766083"
     inkscape:cx="40.246822"
     inkscape:cy="21.965802"
     inkscape:window-x="0"
     inkscape:window-y="0"
     inkscape:window-maximized="1"
     inkscape:current-layer="svg2">
    <inkscape:grid
       type="xygrid"
       id="grid3069" />
  </sodipodi:namedview>
  <defs
     id="defs4">
    <linearGradient
       id="linearGradient3764"
       x1="1"
       x2="47"
       gradientUnits="userSpaceOnUse"
       gradientTransform="matrix(0,-1,1,0,-1.5e-6,47.999998)">
      <stop
         stop-color="#c3d9e5"
         stop-opacity="1"
         id="stop7" />
      <stop
         offset="1"
         stop-color="#d1e2eb"
         stop-opacity="1"
         id="stop9" />
    </linearGradient>
    <clipPath
       id="clipPath-598442766">
      <g
         transform="translate(0,-1004.3622)"
         id="g12">
        <path
           d="m -24 13 c 0 1.105 -0.672 2 -1.5 2 -0.828 0 -1.5 -0.895 -1.5 -2 0 -1.105 0.672 -2 1.5 -2 0.828 0 1.5 0.895 1.5 2 z"
           transform="matrix(15.333333,0,0,11.5,414.99999,878.8622)"
           fill="#1890d0"
           id="path14" />
      </g>
    </clipPath>
    <clipPath
       id="clipPath-610411058">
      <g
         transform="translate(0,-1004.3622)"
         id="g17">
        <path
           d="m -24 13 c 0 1.105 -0.672 2 -1.5 2 -0.828 0 -1.5 -0.895 -1.5 -2 0 -1.105 0.672 -2 1.5 -2 0.828 0 1.5 0.895 1.5 2 z"
           transform="matrix(15.333333,0,0,11.5,414.99999,878.8622)"
           fill="#1890d0"
           id="path19" />
      </g>
    </clipPath>
  </defs>
  <g
     id="g21">
    <path
       d="m 36.31 5 c 5.859 4.062 9.688 10.831 9.688 18.5 c 0 12.426 -10.07 22.5 -22.5 22.5 c -7.669 0 -14.438 -3.828 -18.5 -9.688 c 1.037 1.822 2.306 3.499 3.781 4.969 c 4.085 3.712 9.514 5.969 15.469 5.969 c 12.703 0 23 -10.298 23 -23 c 0 -5.954 -2.256 -11.384 -5.969 -15.469 c -1.469 -1.475 -3.147 -2.744 -4.969 -3.781 z m 4.969 3.781 c 3.854 4.113 6.219 9.637 6.219 15.719 c 0 12.703 -10.297 23 -23 23 c -6.081 0 -11.606 -2.364 -15.719 -6.219 c 4.16 4.144 9.883 6.719 16.219 6.719 c 12.703 0 23 -10.298 23 -23 c 0 -6.335 -2.575 -12.06 -6.719 -16.219 z"
       opacity="0.05"
       id="path23" />
    <path
       d="m 41.28 8.781 c 3.712 4.085 5.969 9.514 5.969 15.469 c 0 12.703 -10.297 23 -23 23 c -5.954 0 -11.384 -2.256 -15.469 -5.969 c 4.113 3.854 9.637 6.219 15.719 6.219 c 12.703 0 23 -10.298 23 -23 c 0 -6.081 -2.364 -11.606 -6.219 -15.719 z"
       opacity="0.1"
       id="path25" />
    <path
       d="m 31.25 2.375 c 8.615 3.154 14.75 11.417 14.75 21.13 c 0 12.426 -10.07 22.5 -22.5 22.5 c -9.708 0 -17.971 -6.135 -21.12 -14.75 a 23 23 0 0 0 44.875 -7 a 23 23 0 0 0 -16 -21.875 z"
       opacity="0.2"
       id="path27" />
  </g>
  <g
     id="g29">
    <path
       d="m 24 1 c 12.703 0 23 10.297 23 23 c 0 12.703 -10.297 23 -23 23 -12.703 0 -23 -10.297 -23 -23 0 -12.703 10.297 -23 23 -23 z"
       fill="url(#linearGradient3764)"
       fill-opacity="1"
       id="path31" />
  </g>
  <g
     id="g33" />
  <path
     style="fill:#000000;fill-opacity:1;stroke:none;opacity:0.1"
     d="M 28.21875 12.96875 C 19.701783 13.1857 10.936801 17.227226 12.6875 27.4375 C 14.188014 36.694515 23.007298 38.718246 32.09375 35.21875 C 33.888752 34.632676 35.752723 33.709401 37.59375 32.4375 L 36.5625 26.875 L 32.71875 27.59375 C 32.480968 27.6385 30.725282 29.434626 29.5625 30.375 C 26.147102 30.624019 23.052842 28.908008 22.78125 24.84375 C 22.68321 21.956631 24.080237 20.007351 26.125 18.96875 C 26.39675 18.83072 26.675872 18.698799 26.96875 18.59375 C 27.265372 18.487358 27.592005 18.416232 27.90625 18.34375 C 27.593025 18.417199 27.264162 18.487393 26.96875 18.59375 C 26.673338 18.700107 26.397605 18.830285 26.125 18.96875 C 26.267225 18.92744 26.419991 18.861608 26.53125 18.84375 C 27.796144 18.640719 29.666257 19.566482 31.15625 20.25 C 32.448799 19.953712 33.659402 19.551318 35.09375 19.375 L 33.9375 13.40625 C 32.311709 13.113801 30.624675 12.995792 28.96875 13.0625 C 29.539552 13.039473 30.113033 13.009848 30.6875 13.03125 C 29.874835 12.981295 29.04713 12.947649 28.21875 12.96875 z M 25.3125 13.53125 C 24.930279 13.620617 24.556125 13.729424 24.1875 13.84375 C 23.772808 13.972363 23.362538 14.120262 22.96875 14.28125 C 23.360532 14.120423 23.774992 13.972452 24.1875 13.84375 C 24.558539 13.727987 24.927653 13.621641 25.3125 13.53125 z M 22.34375 14.5625 C 22.118301 14.668379 21.903789 14.788635 21.6875 14.90625 C 21.9035 14.78848 22.118617 14.668553 22.34375 14.5625 z M 29.84375 18.09375 C 30.275025 18.086985 30.68565 18.107093 31.125 18.15625 C 30.691677 18.109637 30.269723 18.087068 29.84375 18.09375 z M 31.1875 18.15625 C 31.551052 18.199087 31.917782 18.26254 32.28125 18.34375 C 31.919496 18.26489 31.549411 18.197303 31.1875 18.15625 z M 16.71875 21.5625 C 16.668627 21.835006 16.623672 22.119284 16.59375 22.40625 C 16.624249 22.115466 16.667549 21.838486 16.71875 21.5625 z M 18.5625 31.09375 C 18.689473 31.29993 18.800588 31.493982 18.9375 31.6875 C 18.803129 31.497208 18.687264 31.296312 18.5625 31.09375 z M 22.9375 35.03125 C 23.159402 35.132704 23.394979 35.227133 23.625 35.3125 C 23.388885 35.225478 23.165055 35.135222 22.9375 35.03125 z "
     id="path3846" />
  <path
     style="fill:#156885;fill-opacity:1;stroke:none"
     d="M 27.21875 11.96875 C 18.701783 12.1857 9.9368006 16.227226 11.6875 26.4375 C 13.188014 35.694515 22.007298 37.718246 31.09375 34.21875 C 23.712716 36.628682 17.230095 33.36158 15.75 25.21875 C 13.965914 14.819669 22.999029 11.27064 31.28125 12.15625 C 29.962157 12.002346 28.595819 11.933672 27.21875 11.96875 z M 28.84375 17.09375 C 27.508272 17.1147 26.21542 17.41489 25.125 17.96875 C 25.267225 17.92744 25.419991 17.861608 25.53125 17.84375 C 26.796144 17.640719 28.666257 18.566482 30.15625 19.25 C 31.448799 18.953712 32.659402 18.551318 34.09375 18.375 C 32.429104 17.48226 30.589102 17.066371 28.84375 17.09375 z M 35.5625 25.875 L 31.71875 26.59375 C 31.480968 26.638497 29.725282 28.434626 28.5625 29.375 C 31.037345 29.194557 33.687641 27.985356 35.5625 25.875 z "
     id="path3071" />
  <path
     sodipodi:nodetypes="ccccccc"
     inkscape:connector-curvature="0"
     id="path3841"
     d="m 35.559082,25.869955 1.024705,5.57296 c -9.411316,6.501947 -18.995639,3.884974 -20.83568,-6.23812 -1.903025,-11.092353 8.515407,-14.35956 17.18629,-12.799831 l 1.150547,5.96846 c -5.326868,-2.856769 -12.515118,-0.973808 -12.296467,5.465097 0.468392,7.009276 9.308356,7.054176 13.770605,2.031434 z"
     style="opacity:1;fill:#22c0f0;fill-opacity:1;stroke:none" />
  <g
     id="g75">
    <path
       d="m 40.03 7.531 c 3.712 4.084 5.969 9.514 5.969 15.469 0 12.703 -10.297 23 -23 23 c -5.954 0 -11.384 -2.256 -15.469 -5.969 4.178 4.291 10.01 6.969 16.469 6.969 c 12.703 0 23 -10.298 23 -23 0 -6.462 -2.677 -12.291 -6.969 -16.469 z"
       opacity="0.1"
       id="path77" />
  </g>
</svg>

<svg xmlns="http://www.w3.org/2000/svg" viewBox="0 0 48 48">
 <defs>
  <linearGradient id="linearGradient3764" x1="1" x2="47" gradientUnits="userSpaceOnUse" gradientTransform="matrix(0,-1,1,0,-1.5e-6,47.999998)">
   <stop style="stop-color:#c3d9e5;stop-opacity:1"/>
   <stop offset="1" style="stop-color:#d1e2eb;stop-opacity:1"/>
  </linearGradient>
 </defs>
 <g>
  <path d="m 36.31 5 c 5.859 4.062 9.688 10.831 9.688 18.5 c 0 12.426 -10.07 22.5 -22.5 22.5 c -7.669 0 -14.438 -3.828 -18.5 -9.688 c 1.037 1.822 2.306 3.499 3.781 4.969 c 4.085 3.712 9.514 5.969 15.469 5.969 c 12.703 0 23 -10.298 23 -23 c 0 -5.954 -2.256 -11.384 -5.969 -15.469 c -1.469 -1.475 -3.147 -2.744 -4.969 -3.781 z m 4.969 3.781 c 3.854 4.113 6.219 9.637 6.219 15.719 c 0 12.703 -10.297 23 -23 23 c -6.081 0 -11.606 -2.364 -15.719 -6.219 c 4.16 4.144 9.883 6.719 16.219 6.719 c 12.703 0 23 -10.298 23 -23 c 0 -6.335 -2.575 -12.06 -6.719 -16.219 z" style="opacity:0.05"/>
  <path d="m 41.28 8.781 c 3.712 4.085 5.969 9.514 5.969 15.469 c 0 12.703 -10.297 23 -23 23 c -5.954 0 -11.384 -2.256 -15.469 -5.969 c 4.113 3.854 9.637 6.219 15.719 6.219 c 12.703 0 23 -10.298 23 -23 c 0 -6.081 -2.364 -11.606 -6.219 -15.719 z" style="opacity:0.1"/>
  <path d="m 31.25 2.375 c 8.615 3.154 14.75 11.417 14.75 21.13 c 0 12.426 -10.07 22.5 -22.5 22.5 c -9.708 0 -17.971 -6.135 -21.12 -14.75 a 23 23 0 0 0 44.875 -7 a 23 23 0 0 0 -16 -21.875 z" style="opacity:0.2"/>
 </g>
 <g>
  <path d="m 24 1 c 12.703 0 23 10.297 23 23 c 0 12.703 -10.297 23 -23 23 -12.703 0 -23 -10.297 -23 -23 0 -12.703 10.297 -23 23 -23 z" style="fill:url(#linearGradient3764);fill-opacity:1"/>
 </g>
 <path d="m 28.22 12.969 c -8.517 0.217 -17.282 4.258 -15.531 14.469 c 1.501 9.257 10.32 11.281 19.406 7.781 c 1.795 -0.586 3.659 -1.509 5.5 -2.781 l -1.031 -5.563 l -3.844 0.719 c -0.238 0.045 -1.993 1.841 -3.156 2.781 c -3.415 0.249 -6.51 -1.467 -6.781 -5.531 c -0.098 -2.887 1.299 -4.836 3.344 -5.875 c 0.272 -0.138 0.551 -0.27 0.844 -0.375 c 0.297 -0.106 0.623 -0.178 0.938 -0.25 c -0.313 0.073 -0.642 0.144 -0.938 0.25 c -0.295 0.106 -0.571 0.237 -0.844 0.375 c 0.142 -0.041 0.295 -0.107 0.406 -0.125 c 1.265 -0.203 3.135 0.723 4.625 1.406 c 1.293 -0.296 2.503 -0.699 3.938 -0.875 l -1.156 -5.969 c -1.626 -0.292 -3.313 -0.41 -4.969 -0.344 c 0.571 -0.023 1.144 -0.053 1.719 -0.031 c -0.813 -0.05 -1.64 -0.084 -2.469 -0.063 z m -2.906 0.563 c -0.382 0.089 -0.756 0.198 -1.125 0.313 c -0.415 0.129 -0.825 0.277 -1.219 0.438 c 0.392 -0.161 0.806 -0.309 1.219 -0.438 c 0.371 -0.116 0.74 -0.222 1.125 -0.313 z m -2.969 1.031 c -0.225 0.106 -0.44 0.226 -0.656 0.344 c 0.216 -0.118 0.431 -0.238 0.656 -0.344 z m 7.5 3.531 c 0.431 -0.007 0.842 0.013 1.281 0.063 c -0.433 -0.047 -0.855 -0.069 -1.281 -0.063 z m 1.344 0.063 c 0.364 0.043 0.73 0.106 1.094 0.188 c -0.362 -0.079 -0.732 -0.146 -1.094 -0.188 z m -14.469 3.406 c -0.05 0.273 -0.095 0.557 -0.125 0.844 c 0.03 -0.291 0.074 -0.568 0.125 -0.844 z m 1.844 9.531 c 0.127 0.206 0.238 0.4 0.375 0.594 c -0.134 -0.19 -0.25 -0.391 -0.375 -0.594 z m 4.375 3.938 c 0.222 0.101 0.457 0.196 0.688 0.281 c -0.236 -0.087 -0.46 -0.177 -0.688 -0.281 z" style="fill:#000;opacity:0.1;fill-opacity:1;stroke:none"/>
 <path d="m 27.22 11.969 c -8.517 0.217 -17.282 4.258 -15.531 14.469 c 1.501 9.257 10.32 11.281 19.406 7.781 c -7.381 2.41 -13.864 -0.857 -15.344 -9 c -1.784 -10.399 7.249 -13.948 15.531 -13.06 c -1.319 -0.154 -2.685 -0.223 -4.063 -0.188 z m 1.625 5.125 c -1.335 0.021 -2.628 0.321 -3.719 0.875 c 0.142 -0.041 0.295 -0.107 0.406 -0.125 c 1.265 -0.203 3.135 0.723 4.625 1.406 c 1.293 -0.296 2.503 -0.699 3.938 -0.875 c -1.665 -0.893 -3.505 -1.309 -5.25 -1.281 z m 6.719 8.781 l -3.844 0.719 c -0.238 0.045 -1.993 1.841 -3.156 2.781 c 2.475 -0.18 5.125 -1.39 7 -3.5 z" style="fill:#156885;fill-opacity:1;stroke:none"/>
 <path d="m 35.559 25.87 1.025 5.573 c -9.411 6.502 -18.996 3.885 -20.836 -6.238 -1.903 -11.09 8.515 -14.36 17.19 -12.8 l 1.151 5.968 c -5.327 -2.857 -12.515 -0.974 -12.296 5.465 0.468 7.01 9.308 7.05 13.771 2.031 z" style="fill:#22c0f0;opacity:1;fill-opacity:1;stroke:none"/>
 <g>
  <path d="m 40.03 7.531 c 3.712 4.084 5.969 9.514 5.969 15.469 0 12.703 -10.297 23 -23 23 c -5.954 0 -11.384 -2.256 -15.469 -5.969 4.178 4.291 10.01 6.969 16.469 6.969 c 12.703 0 23 -10.298 23 -23 0 -6.462 -2.677 -12.291 -6.969 -16.469 z" style="opacity:0.1"/>
 </g>
</svg>
